X: 04006
T: The BAINS' WELCOME TO DUBLIN
C: Bob McQuillen 13 Nov 78
B: Bob's Note Book 04 #6
%R: jig
Z: 2020 John Chambers <jc:trillian.mit.edu>
M: 6/8
L: 1/8
K: G
D \
| G2A BAG | E2G D2D | G2A BcB | B3 A2D |\
| G2A BAG | E2G D2D | GAB BcB | A3 G2 :|
|: B \
| dBd gfg | e2g d2B | dge dBG | B3 A2d |\
| dBd gfg | e2g d2B | GAB dBG | A3 G2 :|
%%begintext align
%% For great Northumbrian Piper
%% Iain Bain, and his lovely wife,
%% Mrs. Sue Bain, on the occasion
%% of their visit to Dublin, N.H., U.S.A.
%% With fondest best wishes always.
%%endtext

%%sep 1 1 500

%%sep 1 1 500

